X: 4469
T: Bonnie Lass O' Lownie, The
R: waltz
M: 3/4
K: Gmajor
D2|G3AB2|d2B2G2|g3ec2|d2B2G2|c2e2c2|B3AG2|E2c2B2|A3DD2|
G3AB2|d2B2G2|e3fg2|d2B2G2|EGc2E2|DGB2G2|F2B2A2|G4D2||
E4G2|D4B2|A4c2|B2G2D2|c3BA2|d2B2G2|^c3de2|.d2.e2.f2|
g4b2|d2B2d2|e4g2|dBG2D2|E2=c2B2|D2B2G2|F2B2A2|G4||

